X:15003
T:Old Mole, The
R:Jig
C:Trad. Playford 1651
O:England
M:6/8
L:1/8
Q:1/8=200
K:G
"Em"G2 G E3/2F/G|"D"A2 F D2 D|"Em"G2 G E3/2F/G|"D"A3 d3|
"Em"B2 G E3/2F/G|"D"A2 F D2 D|"Em"E3/2F/G F3/2E/F|"G"G3 G3:|

